!!!OTL: Ich wollt einmal freien gehn (Band 1), S. 199
!!!id: P0843
**kern
*clefG2
*k[f#]
*e:
{4d
=1
4g
4g
4f#
4f#
=2
4e
4e
4d}
=3
{4d
=4
4g
4g
8b
8a
8a
8a
=5
2b}
4r
=6
{8g
8a
=7
4b
8b
8b
8cc
8b
4a
=8
4b
4a
4g}
=9
{4g
=10
4a
4a
4b
4f#
=11
2e
4d}
=12
{8e
8e
4g
4a
=13
*M3/2
2.b
4f#
4g
4f#
=14
2e}
4r
==
*-
!!!minrhy: 8
!!!meters: 2/2 3/2 ]  ZZ[5
!!!cut: Ich wollt einmal freien gehn (Band 1), S. 199
!!!reg: Lothringen
!!!trd: PINCK, Louis: Verklingende Weisen, Bd 1, Metz 1928
!!!rhy1: X_  X_X_X_X_  X_X_X_
!!!rhy2: X_  X_X_XXXX  X__0_
!!!key: P0843  08  E 2/2 3/2 ]  ZZ[5
!!!mod: HEPTATONIK AEOLISCH]  AMBITUS[7b
!!!kad: -7b53b-7b1
!!!akz: 3b1_3b5_55_41_51_
!!!fot: 'a__b__c__d__bw_
!!!for: 'a__b__c__d__e__
!!!fok: '^__/__^__^d_^__
!! PHRAS[AUFTAKTIG]
!!!fkt: Liebe, Verf&uuml;hrung
!! LOTH VKL
!! PR[39] 2K[3] 2G[15] 3K[5] 3G[3] 4A[2] 4Ü[0] 5A[0] 6K[0] 6G[0]
!! 7K[0] 7G[0] 8A[0] MEHR[0] SI[28] ABS[61] SR[18] SP[10]
!! ST[16] 2k[7] 2g[25] 3k[2] 3g[0] 4d[0] 4ü[0] 5d[0] 6k[0] 6g[0]
!! 7k[0] 7g[0] 8d[0] mehr[0] si[33] dm[-5] sr[31] sp[2]
!! 1F[58] 2F[35] 3F[6] 4F[0] LF[0] 2P[0] 3P[0] 4P[0] TRI[0] DF[3] AB[62]
!! TF[0] U3K[0] U3[0] U4[0] U4Ü[0] U5[3] U6K[0] U6[0] U7K[0] U7[3]
!! N1[15] N2K[0] N2[27] N3K[0] N3[44] N4[3] N4Ü[0] N5[5] N6K[0] N6[0]
!!!n7k: 0] N7[0] O1[0] O2K[0] O2[0] O3K[0] O3[0] HÖ[0
!!!RNB: symbol: &uuml;  = u umlaut (UTF-8: Ã¼)
